X:1
T:Title
%%score { ( 1 2 ) | ( 3 4 5 ) }
L:1/8
Q:1/4=114
M:4/4
K:Eb
V:1 bass nm="Grand Piano"
V:2 bass 
V:3 bass 
V:4 bass 
V:5 bass 
V:1
 z4 E4 | z4 E4 | z4 E4 | E,2 z2 E2 [A,B,D]2 | E,4 [B,E]4 | [E,G,B,E]2 z2 [E,G,B,E]2 z2 | %6
 [F,B,D]4 [E,G,B,E]2 [F,A,B,D]2 | [E,B,E]6 z2 | [G,B,E]8 | [B,E]8 | [EG]4[K:bass] [B,E]4 | %11
 [E,G,B,E]2 [D,F,B,D]2 [F,B,D]2 [G,B,E]2 | [A,B,D]4 z4 | [F,A,B,]8 | [D,F,A,B,]8 | [E,G,B,E]8 | %16
[Q:1/4=110] [eg]2 [df]>[ce] [Bd]2 [GB]2 | [eg]2 [df]>[ce] [Bd]2 [GB]B | c>B cd e[df][eg][df] | %19
 [df]2 z2 [df]2 B2 | B6 B2 | c>d ed cBAG |[M:5/4] FEDF B6 | z10 | %24
[M:4/4] [Be][Be][Be][Be] [Bd]2 [Be]>[Be] | [Bf]6 z2 |[M:19/16] z19/2 | %27
[M:4/4] [Be][Be][Be][Be] [Bd]2 [Be]>[Be] | [Bf]6 z2 |[M:9/8] z9 | %30
[M:4/4] [Ge][Bd][Ac][GB] [Ac]2 [Ac]>[Ac] | [GB]6 z2 |[M:9/8] z9 | %33
[M:4/4] [Ge][Bd][Ac][GB] [Ac]2 [Ac]>[Ac] | [GB]6 z2 |[M:9/8] z9 | %36
[M:4/4] [ef][ef][ef][ef] [df]2 [ef]>[ef] | [df]6 z2 | z8 | [ef][ef][ef][ef] [df]2 [ef]>[ef] | %40
 [df]6 z2 | [G,B,B]2 [B,B]2 [Cc]>[Dd] [Ee]>[Cc] | [E,G,B,B]4 [E,G,B,B]2 [G,G]>[A,A] | %43
 [B,B]6 [B,B]>[B,B] | [Cc]2 d>e e2 c2 | B4 _d4 |[M:9/8] c3 B B2- BGG |[M:3/4] A2 A4 |[M:1/4] B>B | %49
[M:4/4] A2 G2 z2 BB | c2 c2 z2 e>d | cBG,A, G,A,[GB][GB] | [Ac][Ac] [ce]>[Ac] [Ac][GB][GB][GB] | %53
[M:17/16] [Ac][Ac][ce]>[Ac][Ac][GB]>[GB]-[GB]3/2 |[M:4/4] [Be]3 [Bd] [Be][Bd][Be][Bf] | %55
 [Be]2 [Bd]2 [Bd]2 [Bd][Bd] | %56
 [Be]4 [Bd]2 [Bd]2[Q:1/4=108][Q:1/4=107][Q:1/4=105][Q:1/4=104][Q:1/4=102][Q:1/4=100][Q:1/4=99][Q:1/4=97][Q:1/4=95][Q:1/4=94][Q:1/4=92][Q:1/4=91][Q:1/4=89][Q:1/4=87][Q:1/4=86][Q:1/4=84] | %57
 [Be]8 |] %58
V:2
 E,4 z2 z E, | G, B,3 z2 B,2 | C4 z2 z F, | z2 C,4 z2 | x8 | x8 | x8 | G,4 z4 | x8 | x8 | %10
 x4[K:bass] x4 | x8 | x8 | x8 | x8 | x8 | x8 | x8 | x8 | x8 | x8 | x8 |[M:5/4] x10 | x10 | %24
[M:4/4] x8 | x8 |[M:19/16] x19/2 |[M:4/4] x8 | x8 |[M:9/8] x9 |[M:4/4] x8 | x8 |[M:9/8] x9 | %33
[M:4/4] x8 | x8 |[M:9/8] x9 |[M:4/4] x8 | x8 | x8 | x8 | x8 | E,4 z4 | x8 | x8 | x8 | x8 | %46
[M:9/8] x9 |[M:3/4] x6 |[M:1/4] x2 |[M:4/4] x8 | x8 | x8 | x8 |[M:17/16] x17/2 |[M:4/4] x8 | x8 | %56
 x8 | x8 |] %58
V:3
 z4 [E,G,B,]4 | z4 B,2 z2 | z4 [G,C]4 | C,2 z2 [G,C]2 [B,,,B,,]2 | z2 z F, G,2 F,2 | %5
 E,,2 C2 E,,2 z G, | B,,4 G,,2 B,,2 | E,,6 B,,2 | E,>F, E,D, E,2 B,,2 | G,>A, G,F, G,2 E,2 | %10
 B,>C B,A, G,2 E,2 | E,,2 [B,,,B,,]2 [B,,,B,,]2 [B,,,B,,]2 | [B,,,B,,]4 C,2 =B,,2 | B,,8 | %14
 B,,4 B,,4 | E,,8 | [E,B,]2 [B,,B,]>[C,G,] [D,F,]2 [E,G,]2 | %17
 [E,B,]2 [B,,B,]>[C,G,] [D,F,]2 [E,G,][E,G,] | A,>G, A,B, CB,[E,B,][B,,B,] | %19
 [B,,B,]2 z2 [B,,B,]2 B,2 | B,6 B,2 | C>[K:treble]D ED CB,[K:bass]A,G, |[M:5/4] F,E,D,F, B,,6 | %23
 F,2 E,2 D,6 |[M:4/4] G,G,G,G, F,2 G,>G, | A,6 z2 | %26
[M:19/16] E,-<E,F,-<F,E,D,/-D,/-D,/-D,/-D,/-D,-<D, |[M:4/4] G,G,G,G, F,2 G,>G, | A,6 z2 | %29
[M:9/8] E,2 F,- F,/G,/ A,2 F,3 |[M:4/4] E,E,E,E, E,2 E,>E, | E,6 z2 |[M:9/8] D,2 E,- E, F,2 B,,3 | %33
[M:4/4] E,E,E,E, E,2 E,>E, | E,6 z2 |[M:9/8] D,D,E,- E,F,G, A,3 | %36
[M:4/4][K:treble] CCCC B,2[K:bass] =A,>A, | B,6 z2 | E,E, D,2 A,A, G,2 | CCCC B,2[K:bass] A,>A, | %40
 B,6 z2 | z2 G,2 A,>B, C>A, | z4 z2 E,2 | [E,,E,G,]6 G,>G, | A,2 [B,D]>[CE] [CE]2 [A,C]2 | %45
 [E,,E,G,B,]4 [E,,E,G,B,_D]4 |[M:9/8] [A,C]3 [G,B,] [E,,E,G,B,]2- [E,,E,G,B,][E,G,][E,G,] | %47
[M:3/4] [F,A,]2 [F,A,]4 |[M:1/4] [B,,G,]>[B,,G,] |[M:4/4] [B,,F,]2 E,2 z2 [G,B,][G,B,] | %50
 [E,A,C]2 [E,A,C]2 z2 [E,C]>[E,B,] | [E,A,][E,G,]E,F, E,F,[E,,E,][E,,E,] | %52
 [A,,E,][A,,E,] [A,,E,]>[A,,E,] [E,,E,][E,,E,][E,,E,][E,,E,] | %53
[M:17/16] [A,,E,][A,,E,][A,,E,]>[A,,E,][E,,E,][E,,E,]>E,-E,3/2 | %54
[M:4/4] [E,G,]3 [E,F,] [E,G,][E,F,][E,G,][E,A,] | [E,G,]2 [B,,F,]2 [B,,F,]2 [B,,F,][B,,F,] | %56
 [E,G,]4 [B,,A,]2 [B,,A,]2 | [E,G,]8 |] %58
V:4
 E,,8 | z4 G,4 | [C,,C,]8 | C,,6 z2 | E,,8 | x8 | x8 | x8 | x8 | x8 | x8 | x8 | x8 | x8 | x8 | x8 | %16
 x8 | x8 | x8 | x8 | x8 | x3/2[K:treble] x9/2[K:bass] x2 |[M:5/4] x10 | x10 |[M:4/4] x8 | x8 | %26
[M:19/16] x19/2 |[M:4/4] x8 | x8 |[M:9/8] x9 |[M:4/4] x8 | x8 |[M:9/8] x9 |[M:4/4] x8 | x8 | %35
[M:9/8] x9 |[M:4/4][K:treble] x6[K:bass] x2 | x8 | x8 | x6[K:bass] x2 | x8 | E,,4 [A,,E,]4 | %42
 E,,4 z2 z z/ F,/ | z4 z2 [E,,E,]2 | [A,,E,]4 [A,,E,]4 | x8 |[M:9/8] .[E,,E,]6 z3 |[M:3/4] B,,6 | %48
[M:1/4] x2 |[M:4/4] z4 z2 E,2 | x8 | x8 | x8 |[M:17/16] x17/2 |[M:4/4] x8 | x8 | x8 | x8 |] %58
V:5
 x8 | [E,,E,]8 | x8 | x8 | x8 | x8 | x8 | x8 | x8 | x8 | x8 | x8 | x8 | x8 | x8 | x8 | x8 | x8 | %18
 x8 | x8 | x8 | x3/2[K:treble] x9/2[K:bass] x2 |[M:5/4] x10 | x10 |[M:4/4] x8 | x8 | %26
[M:19/16] x19/2 |[M:4/4] x8 | x8 |[M:9/8] x9 |[M:4/4] x8 | x8 |[M:9/8] x9 |[M:4/4] x8 | x8 | %35
[M:9/8] x9 |[M:4/4][K:treble] x6[K:bass] x2 | x8 | x8 | x6[K:bass] x2 | x8 | x8 | z4 E,,4 | x8 | %44
 x8 | x8 |[M:9/8] x9 |[M:3/4] x6 |[M:1/4] x2 |[M:4/4] x8 | x8 | x8 | x8 |[M:17/16] x17/2 | %54
[M:4/4] x8 | x8 | x8 | x8 |] %58

